X:793
T:The Humors of Tralibane.
C:F. O'Neill.
B:O'Neill's Music of Ireland
N:O'Neill's - 793
Z:Transcribed by Stephen Foy (shf@access.digex.net)
Z:abc 1.6
R:Jig
M:6/8
K:A
g/f/|ecA Ace|dBG GBd|cBA ecA|def agfg|\
ecA Ace|dBG GBd|cBA edB|cBAA A2:|
||d|efg efg|faf ged|efg efg|baa a2 d|\
efg efg|gfed Bcd|gfe edB|cBAA A2:|
